X: 1
T: Sleepy Maggie, Cape Breton version
M: 4/4
L: 1/8
R: reel
K: Bdor
|:fB B/B/B fBce | fB B/B/B eAce | fB B/B/B fBce | fgaf eAce:|
|:f2 f/a/b fBce | f2 f/g/a eAce | f2 f/a/b fBce | fgaf eAce:|
